X: 43021
T: Willy Taylor's High Tea
R: barndance
M: 4/4
K: Gmajor
GA|B2B2 BAGA|B2B2 B2e2|d2B2 cBAG|E2A2 A2GA|
B2Bc BAGA|B2d2 g2ga|bagf efge|d2B2 B2Bc|
d2B2 g2B2|d2B2 B2 (3ABc|d2B2 g2 (3efg|a2A2 A2GA|
B2Bc BAGA|B2d2 g2ga|bagf efge|d2B2 B4|

